X: 152241
T: O'Neill's
S: Connacht Ceili Band (Boston mid-60's)
L: 1/8
M: 4/4
R: march
Q: 250
K: G
GA | B2 B2 B>A B/c/d  | B2 BA B2 AG | Bdge dBAG | A2 AB A2 GA |
B2 B2 B>A B/c/d | B2 BA B2 AG | Bdge dBAB | G2 GF G2 :|
d2 | g2 fg e2 ag | fefd B3c | d>^cde dBAG | g2 gf g3f |
e2 e/f/g d2 e/f/g | dBAG A2 Bd | efge dBAB | G2 GF G2 :|
